outputs/icons/communication/broadcast_round.svg

<svg xmlns="http://www.w3.org/2000/svg" width="1200" height="1200" fill="none"><path fill="#000" d="M912.5 550c-6.905 0-12.5 5.595-12.5 12.5v75c0 6.905 5.595 12.5 12.5 12.5h175c6.905 0 12.5-5.595 12.5-12.5v-75c0-6.905-5.595-12.5-12.5-12.5zM807.59 870.415c-4.175 5.56-3.035 13.45 2.545 17.595 43.14 31.99 95.705 71.475 139.905 104.54 5.51 4.125 13.31 3.01 17.445-2.49 14.985-19.94 29.975-40.09 44.96-60.03 4.16-5.535 3.05-13.4-2.5-17.55-44.205-33.075-96.77-72.585-139.89-104.94-5.545-4.16-13.415-3.005-17.54 2.565-14.975 20.21-29.95 40.385-44.925 60.31m202.46-582.889c5.505-4.156 6.585-11.982 2.445-17.493-15.005-19.961-30.005-40.133-45.01-60.094-4.135-5.5-11.935-6.612-17.445-2.49-44.235 33.097-96.855 72.649-140.015 105.032-5.535 4.151-6.64 12.004-2.485 17.535 14.99 19.939 29.975 40.09 44.965 60.029 4.135 5.507 11.95 6.614 17.46 2.485 43.175-32.342 95.83-71.568 140.085-105.004M200 450c-55 0-100 45-100 100v100c0 55 45 100 100 100h50v175c0 13.805 11.193 25 25 25h50c13.807 0 25-11.195 25-25V750h50l212.14 127.285c16.66 9.995 37.86-2.005 37.86-21.44V344.154c0-19.432-21.2-31.435-37.86-21.437L400 450zm575 150c0-66.5-29-126.5-75-167.5V767c46-40.5 75-100.5 75-167"/></svg>

<svg width="1200" height="1200" viewBox="0 0 1200 1200" fill="none" xmlns="http://www.w3.org/2000/svg"><path d="M912.5 550C905.595 550 900 555.595 900 562.5V637.5C900 644.405 905.595 650 912.5 650H1087.5C1094.405 650 1100 644.405 1100 637.5V562.5C1100 555.595 1094.405 550 1087.5 550H912.5ZM807.59 870.415C803.415 875.975 804.555 883.865 810.135 888.01C853.275 920 905.84 959.485 950.04 992.55C955.55 996.675 963.35 995.56 967.485 990.06C982.47 970.12 997.46 949.97 1012.445 930.03C1016.605 924.495 1015.495 916.63 1009.945 912.48C965.74 879.405 913.175 839.895 870.055 807.54C864.51 803.38 856.64 804.535 852.515 810.105C837.54 830.315 822.565 850.49 807.59 870.415ZM1010.05 287.526C1015.555 283.37 1016.635 275.544 1012.495 270.033C997.49 250.072 982.49 229.9 967.485 209.939C963.35 204.439 955.55 203.327 950.04 207.449C905.805 240.546 853.185 280.098 810.025 312.481C804.49 316.632 803.385 324.485 807.54 330.016C822.53 349.955 837.515 370.106 852.505 390.045C856.64 395.552 864.455 396.659 869.965 392.53C913.14 360.188 965.795 320.962 1010.05 287.526ZM200 450C145 450 100 495 100 550V650C100 705 145 750 200 750H250V925C250 938.805 261.193 950 275 950H325C338.807 950 350 938.805 350 925V750H400L612.14 877.285C628.8 887.28 650 875.28 650 855.845V344.154C650 324.722 628.8 312.719 612.14 322.717L400 450H200ZM775 600C775 533.5 746 473.5 700 432.5V767C746 726.5 775 666.5 775 600Z" fill="#1D1E23"/></svg>
